dsigndev/static/dsigndev/images/job.svg

<svg enable-background="new 0 0 512 512" viewBox="0 0 512 512" xmlns="http://www.w3.org/2000/svg"><path d="m454.2 89.5h-75v22.2h10.8c7.2 0 13 5.8 13 13s-5.8 13-13 13h-47.5c-7.2 0-13-5.8-13-13s5.8-13 13-13h10.8v-22.2h-194.5v22.2h10.8c7.2 0 13 5.8 13 13s-5.8 13-13 13h-47.5c-7.2 0-13-5.8-13-13s5.8-13 13-13h10.8v-22.2h-75c-28.7 0-51.9 23.2-51.9 51.9v229.3c0 28.6 23.2 51.8 51.8 51.8h396.4c28.6 0 51.8-23.2 51.8-51.8v-229.3c0-28.7-23.2-51.9-51.8-51.9zm-305.6 96.9c24.4 0 44.2 19.8 44.2 44.2s-19.8 44.2-44.2 44.2-44.2-19.8-44.2-44.2 19.8-44.2 44.2-44.2zm-96.5 177.3c0-45.4 36.8-82.2 82.2-82.2h28.7c45.4 0 82.2 36.8 82.2 82.2zm396.8-15.9h-159.8c-6 0-10.9-4.9-10.9-10.9 0-6 4.9-10.9 10.9-10.9h159.9c6 0 10.9 4.9 10.9 10.9 0 6-4.9 10.9-11 10.9zm0-61.8h-159.8c-6 0-10.9-4.9-10.9-10.9 0-6 4.9-10.9 10.9-10.9h159.9c6 0 10.9 4.9 10.9 10.9 0 6-4.9 10.9-11 10.9zm0-61.8h-159.8c-6 0-10.9-4.9-10.9-10.9 0-6 4.9-10.9 10.9-10.9h159.9c6 0 10.9 4.9 10.9 10.9 0 6-4.9 10.9-11 10.9z" fill="#002139"/></svg>

<?xml version="1.0" encoding="utf-8"?>
<!-- Generator: Adobe Illustrator 22.1.0, SVG Export Plug-In . SVG Version: 6.00 Build 0)  -->
<svg version="1.1" id="Layer_1" xmlns="http://www.w3.org/2000/svg" xmlns:xlink="http://www.w3.org/1999/xlink" x="0px" y="0px"
	 viewBox="0 0 512 512" style="enable-background:new 0 0 512 512;" xml:space="preserve">
<style type="text/css">
	.st0{fill:#002139;}
</style>
<path class="st0" d="M454.2,89.5h-75v22.2H390c7.2,0,13,5.8,13,13s-5.8,13-13,13h-47.5c-7.2,0-13-5.8-13-13s5.8-13,13-13h10.8V89.5
	H158.8v22.2h10.8c7.2,0,13,5.8,13,13s-5.8,13-13,13h-47.5c-7.2,0-13-5.8-13-13s5.8-13,13-13h10.8V89.5h-75
	C29.2,89.5,6,112.7,6,141.4v229.3c0,28.6,23.2,51.8,51.8,51.8h396.4c28.6,0,51.8-23.2,51.8-51.8V141.4
	C506,112.7,482.8,89.5,454.2,89.5z M148.6,186.4c24.4,0,44.2,19.8,44.2,44.2s-19.8,44.2-44.2,44.2s-44.2-19.8-44.2-44.2
	S124.2,186.4,148.6,186.4z M52.1,363.7c0-45.4,36.8-82.2,82.2-82.2H163c45.4,0,82.2,36.8,82.2,82.2H52.1z M448.9,347.8H289.1
	c-6,0-10.9-4.9-10.9-10.9l0,0c0-6,4.9-10.9,10.9-10.9H449c6,0,10.9,4.9,10.9,10.9l0,0C459.9,342.9,455,347.8,448.9,347.8z
	 M448.9,286H289.1c-6,0-10.9-4.9-10.9-10.9l0,0c0-6,4.9-10.9,10.9-10.9H449c6,0,10.9,4.9,10.9,10.9l0,0
	C459.9,281.1,455,286,448.9,286z M448.9,224.2H289.1c-6,0-10.9-4.9-10.9-10.9l0,0c0-6,4.9-10.9,10.9-10.9H449
	c6,0,10.9,4.9,10.9,10.9l0,0C459.9,219.3,455,224.2,448.9,224.2z"/>
</svg>
